X:=2
T:Con Alma
C:Dizzy Gillespie
L:1/8
M:C
I:linebreak $
K:F
"F" A4"A7" A4 |"Dm" A4"C6" A4 ||[K:E]"B7" A2 B=c B2 A2 |$"E" G4"Em" =G2"Eb7" z2 ||
[K:D]"D" F4"F#7" F4 |"Bm" F4"A6" F4 ||$[K:Db]"Ab7" G2 A__B A2 G2 ||1"Db""_Fine" F8 :|2
"Db" F6 =E^F ||$[K:F]"Dbø" G^FE^D E4 |"F#7" z4 z ^FGA |"Gø" BA G^F G4 |$"C7" z4 z2 AB |
"F" c8 | z8 |"F#m" z8 |"B7""_D.C. al Fine" z8 ||

